www/assets/images/src/icon_grading_warn.svg

<svg fill="none" height="40" viewBox="0 0 38 40" width="38" xmlns="http://www.w3.org/2000/svg"><path d="m31.7571 36.6667h-25.51428c-.83998-.0002-1.66513-.2331-2.39254-.6752-.72741-.4422-1.33146-1.0781-1.75147-1.8438s-.64118-1.6343-.64129-2.5185.22084-1.7529.64066-2.5187l12.75712-23.25846c.4201-.7658 1.0242-1.40171 1.7518-1.84384.7275-.44213 1.5528-.67489 2.3928-.67489.8401 0 1.6654.23276 2.3929.67489.7276.44213 1.3317 1.07804 1.7518 1.84384l12.7571 23.25846c.4198.7658.6408 1.6345.6407 2.5187s-.2213 1.7528-.6413 2.5185-1.0241 1.4016-1.7515 1.8438c-.7274.4421-1.5526.675-2.3925.6752z" fill="#ebab4a"/><g fill="#fff"><path d="m18.9998 30c.8745 0 1.5834-.7462 1.5834-1.6666 0-.9205-.7089-1.6667-1.5834-1.6667-.8744 0-1.5833.7462-1.5833 1.6667 0 .9204.7089 1.6666 1.5833 1.6666z"/><path d="m18.9998 23.3333c-.4199 0-.8226-.1756-1.1195-.4881-.297-.3126-.4638-.7365-.4638-1.1786v-6.6666c0-.442.1668-.866.4638-1.1785.2969-.3126.6996-.4882 1.1195-.4882.42 0 .8227.1756 1.1196.4882.297.3125.4638.7365.4638 1.1785v6.6666c0 .4421-.1668.866-.4638 1.1786-.2969.3125-.6996.4881-1.1196.4881z"/></g></svg>

<svg width="38" height="40" viewBox="0 0 38 40" fill="none" xmlns="http://www.w3.org/2000/svg">
<path d="M31.7571 36.6667H6.24282C5.40284 36.6665 4.57769 36.4336 3.85028 35.9915C3.12287 35.5493 2.51882 34.9134 2.09881 34.1477C1.6788 33.382 1.45763 32.5134 1.45752 31.6292C1.45741 30.745 1.67836 29.8763 2.09818 29.1105L14.8553 5.85204C15.2754 5.08624 15.8795 4.45033 16.6071 4.0082C17.3346 3.56607 18.1599 3.33331 18.9999 3.33331C19.84 3.33331 20.6653 3.56607 21.3928 4.0082C22.1204 4.45033 22.7245 5.08624 23.1446 5.85204L35.9017 29.1105C36.3215 29.8763 36.5425 30.745 36.5424 31.6292C36.5423 32.5134 36.3211 33.382 35.9011 34.1477C35.4811 34.9134 34.877 35.5493 34.1496 35.9915C33.4222 36.4336 32.597 36.6665 31.7571 36.6667Z" fill="#EBAB4A"/>
<path d="M18.9998 30C19.8743 30 20.5832 29.2538 20.5832 28.3334C20.5832 27.4129 19.8743 26.6667 18.9998 26.6667C18.1254 26.6667 17.4165 27.4129 17.4165 28.3334C17.4165 29.2538 18.1254 30 18.9998 30Z" fill="white"/>
<path d="M18.9998 23.3333C18.5799 23.3333 18.1772 23.1577 17.8803 22.8452C17.5833 22.5326 17.4165 22.1087 17.4165 21.6666V15C17.4165 14.558 17.5833 14.134 17.8803 13.8215C18.1772 13.5089 18.5799 13.3333 18.9998 13.3333C19.4198 13.3333 19.8225 13.5089 20.1194 13.8215C20.4164 14.134 20.5832 14.558 20.5832 15V21.6666C20.5832 22.1087 20.4164 22.5326 20.1194 22.8452C19.8225 23.1577 19.4198 23.3333 18.9998 23.3333Z" fill="white"/>
</svg>
